X:1
T: Step and Fetch Her
N:
C:
S:Watch lines 2 and 4
A:
O:
R:
M:4/4
K:G
I:speed 210
%W: A1
% voice 1 (1 lines, 31 notes)
K:G
M:4/4
L:1/16
G6 A2 B4 B4 |c2 d2 c2 A2 B4 B4 |c2 d2 c2 A2 B4 B4 |c4 c4 B4 B4 |A4 G2 A2 B4 B4 |c2 d2 c2 A2 B4 B4 |
%W:
% voice 1 (1 lines, 12 notes)
M:6/4
L:1/16
c2 d2 c2 A2 B4 B4 A4 F2 A2 |G4 B4 G8 |
%W: A2
% voice 1 (1 lines, 31 notes)
M:4/4
L:1/16
G6 A2 B4 B4 |c2 d2 c2 A2 B4 B4 |c2 d2 c2 A2 B4 B4 |c4 c4 B4 B4 |A4 G2 A2 B4 B4 |c2 d2 c2 A2 B4 B4 |
%W:
% voice 1 (1 lines, 12 notes)
M:6/4
L:1/16
c2 d2 c2 A2 B4 B4 A4 F2 A2 |G4 B4 G8 |
%W: B
% voice 1 (1 lines, 36 notes)
M:4/4
L:1/16
A6 A2 B4 B4 |A4 A2 A2 B4 B4 |A6 A2 B4 c4 |d2 c2 B2 A2 G8 |A6 c2 B4 B4 |A4 A2 c2 B4 B4 |A6 A2 B4 c4 |d2 c2 B2 A2 G8 |
%W: C
% voice 1 (1 lines, 37 notes)
B4 d4 d4 c4 |A2 B2 A2 B2 c4 B4 |G2 A2 B2 c2 d4 g4 |f12 d4 |B4 d4 d4 c4 |A2 B2 A2 B2 c4 B4 |G2 A2 B2 c2 d4 g4 |f4 f4 g8 ||
